svg/s/GE.svg

<svg width="16" height="12" viewBox="0 0 16 12" fill="none" xmlns="http://www.w3.org/2000/svg">
<mask id="mask0" mask-type="alpha" maskUnits="userSpaceOnUse" x="0" y="0" width="16" height="12">
<rect width="16" height="12" fill="white"/>
</mask>
<g mask="url(#mask0)">
<path fill-rule="evenodd" clip-rule="evenodd" d="M0 0V12H16V0H0Z" fill="#F7FCFF"/>
<mask id="mask1" mask-type="alpha" maskUnits="userSpaceOnUse" x="0" y="0" width="16" height="12">
<path fill-rule="evenodd" clip-rule="evenodd" d="M0 0V12H16V0H0Z" fill="white"/>
</mask>
<g mask="url(#mask1)">
<path fill-rule="evenodd" clip-rule="evenodd" d="M7 0H9V5H16V7H9V12H7V7H0V5H7V0Z" fill="#E31D1C"/>
<path fill-rule="evenodd" clip-rule="evenodd" d="M4.99935 8.61098L6.10001 8.5V9.5C6.10001 9.5 4.99935 9.43108 4.99935 9.45098C4.99935 9.47088 5.10001 10.5 5.10001 10.5H4.10001L4.18012 9.5H3.10001V8.5L4.18012 8.61098L4.10001 7.5H5.10001L4.99935 8.61098Z" fill="#E31D1C"/>
<path fill-rule="evenodd" clip-rule="evenodd" d="M4.99935 2.61098L6.10001 2.5V3.5C6.10001 3.5 4.99935 3.43108 4.99935 3.45098C4.99935 3.47088 5.10001 4.5 5.10001 4.5H4.10001L4.18012 3.5H3.10001V2.5L4.18012 2.61098L4.10001 1.5H5.10001L4.99935 2.61098Z" fill="#E31D1C"/>
<path fill-rule="evenodd" clip-rule="evenodd" d="M11.9993 2.61098L13.1 2.5V3.5C13.1 3.5 11.9993 3.43108 11.9993 3.45098C11.9993 3.47088 12.1 4.5 12.1 4.5H11.1L11.1801 3.5H10.1V2.5L11.1801 2.61098L11.1 1.5H12.1L11.9993 2.61098Z" fill="#E31D1C"/>
<path fill-rule="evenodd" clip-rule="evenodd" d="M11.9993 8.61098L13.1 8.5V9.5C13.1 9.5 11.9993 9.43108 11.9993 9.45098C11.9993 9.47088 12.1 10.5 12.1 10.5H11.1L11.1801 9.5H10.1V8.5L11.1801 8.61098L11.1 7.5H12.1L11.9993 8.61098Z" fill="#E31D1C"/>
</g>
</g>
</svg>

<svg width="16" height="12" fill="none" xmlns="http://www.w3.org/2000/svg">
  <mask id="a" maskUnits="userSpaceOnUse" x="0" y="0" width="16" height="12">
    <path fill="#fff" d="M0 0h16v12H0z"/>
  </mask>
  <g mask="url(#a)">
    <path fill-rule="evenodd" clip-rule="evenodd" d="M0 0v12h16V0H0z" fill="#F7FCFF"/>
    <mask id="b" maskUnits="userSpaceOnUse" x="0" y="0" width="16" height="12">
      <path fill-rule="evenodd" clip-rule="evenodd" d="M0 0v12h16V0H0z" fill="#fff"/>
    </mask>
    <g mask="url(#b)" fill-rule="evenodd" clip-rule="evenodd" fill="#E31D1C">
      <path d="M7 0h2v5h7v2H9v5H7V7H0V5h7V0z"/>
      <path d="M5 8.611L6.1 8.5v1S5 9.431 5 9.451c0 .02.1 1.049.1 1.049h-1l.08-1H3.1v-1l1.08.111L4.1 7.5h1L5 8.611zm0-6L6.1 2.5v1S5 3.431 5 3.451c0 .02.1 1.049.1 1.049h-1l.08-1H3.1v-1l1.08.111L4.1 1.5h1L5 2.611zm7 0l1.1-.111v1S12 3.431 12 3.451c0 .02.1 1.049.1 1.049h-1l.08-1H10.1v-1l1.08.111L11.1 1.5h1L12 2.611zm0 6l1.1-.111v1S12 9.431 12 9.451c0 .02.1 1.049.1 1.049h-1l.08-1H10.1v-1l1.08.111L11.1 7.5h1L12 8.611z"/>
    </g>
  </g>
</svg>
